img/icons/mono/signature.svg

<svg width="24" height="24" viewBox="0 0 24 24" fill="none" xmlns="http://www.w3.org/2000/svg">
<g>
<path d="M12 3H4C3.73478 3 3.48043 3.10536 3.29289 3.29289C3.10536 3.48043 3 3.73478 3 4V20C3 20.2652 3.10536 20.5196 3.29289 20.7071C3.48043 20.8946 3.73478 21 4 21H20C20.2652 21 20.5196 20.8946 20.7071 20.7071C20.8946 20.5196 21 20.2652 21 20V12" stroke="#231F20" stroke-width="2" stroke-linecap="round" stroke-linejoin="round"/>
<path d="M14 9.99989L12 11.9999M19.44 8.21989C17.53 10.4099 14 9.99989 14 9.99989C14 9.99989 13.61 5.99989 15.53 3.81989C15.6965 3.62308 15.8843 3.44533 16.09 3.28989L18 3.99989L18.47 2.17989C19.2989 1.98887 20.1524 1.92814 21 1.99989C21 1.99989 21.36 5.99989 19.44 8.21989Z" stroke="#231F20" stroke-width="2" stroke-linecap="round" stroke-linejoin="round"/>
</g>
</svg>

<svg width="24" height="24" fill="none" xmlns="http://www.w3.org/2000/svg"><g stroke="#231F20" stroke-width="2" stroke-linecap="round" stroke-linejoin="round"><path d="M12 3H4a1 1 0 00-1 1v16a1 1 0 001 1h16a1 1 0 001-1v-8"/><path d="M14 10l-2 2m7.44-3.78C17.53 10.41 14 10 14 10s-.39-4 1.53-6.18c.167-.197.354-.375.56-.53L18 4l.47-1.82A8.19 8.19 0 0121 2s.36 4-1.56 6.22z"/></g></svg>
